X: 4769
T: Boys Of Laois, The
R: reel
M: 4/4
K: Eminor
GA|:BGFG E3F|Ggfg edBA|G3A B2EF|GEED EBAB|
G3A B2GA|Bgfg efga|bgag egfg|ecAF G3A:|
|:Bdef g3a|bagf edBA|Be3 GAB^c|d2^ce d2ef|
gbaf gfed|BdAd Be3|GBAG FGA=c|BGAF G3A:|

